docs/.gitbook/assets/icon-coin-16@light.svg

<svg width="32" height="32" viewBox="0 0 16 16" fill="none" xmlns="http://www.w3.org/2000/svg">
<rect x="0" y="0" width="16" height="16" fill="#fff"/>
<path fill-rule="evenodd" clip-rule="evenodd" d="M2.72727 5.69533C2.50159 5.88742 2.5 5.99326 2.5 6C2.5 6.00674 2.50159 6.11258 2.72727 6.30467C2.94994 6.49419 3.31637 6.69875 3.83462 6.88532C4.86475 7.25617 6.33735 7.5 8 7.5C9.66265 7.5 11.1352 7.25617 12.1654 6.88532C12.6836 6.69875 13.0501 6.49419 13.2727 6.30467C13.4984 6.11258 13.5 6.00674 13.5 6C13.5 5.99326 13.4984 5.88742 13.2727 5.69533C13.0501 5.50581 12.6836 5.30125 12.1654 5.11468C11.1352 4.74383 9.66265 4.5 8 4.5C6.33735 4.5 4.86475 4.74383 3.83462 5.11468C3.31637 5.30125 2.94994 5.50581 2.72727 5.69533ZM13.5 7.93853C13.2445 8.07218 12.9663 8.19123 12.6735 8.29666C11.4415 8.74015 9.78913 9 8 9C6.21087 9 4.55847 8.74015 3.32654 8.29666C3.0337 8.19123 2.75545 8.07218 2.5 7.93853V10C2.5 10.0067 2.50159 10.1126 2.72727 10.3047C2.94994 10.4942 3.31637 10.6988 3.83462 10.8853C4.86475 11.2562 6.33735 11.5 8 11.5C9.66265 11.5 11.1352 11.2562 12.1654 10.8853C12.6836 10.6988 13.0501 10.4942 13.2727 10.3047C13.4984 10.1126 13.5 10.0067 13.5 10V7.93853ZM1 6V10C1 10.6146 1.34819 11.1006 1.75504 11.4469C2.1649 11.7958 2.71377 12.0761 3.32654 12.2967C4.55847 12.7401 6.21087 13 8 13C9.78913 13 11.4415 12.7401 12.6735 12.2967C13.2862 12.0761 13.8351 11.7958 14.245 11.4469C14.6518 11.1006 15 10.6146 15 10V6C15 5.38542 14.6518 4.89935 14.245 4.55306C13.8351 4.20422 13.2862 3.92394 12.6735 3.70334C11.4415 3.25985 9.78913 3 8 3C6.21087 3 4.55847 3.25985 3.32654 3.70334C2.71377 3.92394 2.1649 4.20422 1.75504 4.55306C1.34819 4.89935 1 5.38542 1 6Z" fill="#000"/>
</svg>

<svg xmlns="http://www.w3.org/2000/svg" width="32" height="32" fill="none" viewBox="0 0 16 16"><path fill="#fff" d="M0 0h16v16H0z"/><path fill="#000" fill-rule="evenodd" d="M2.727 5.695c-.225.192-.227.298-.227.305s.002.113.227.305c.223.19.59.394 1.108.58C4.865 7.256 6.337 7.5 8 7.5s3.135-.244 4.165-.615c.519-.186.885-.39 1.108-.58.225-.192.227-.298.227-.305s-.002-.113-.227-.305c-.223-.19-.59-.394-1.108-.58C11.135 4.744 9.663 4.5 8 4.5s-3.135.244-4.165.615c-.519.186-.885.39-1.108.58M13.5 7.94a7 7 0 0 1-.826.358C11.442 8.74 9.789 9 8 9s-3.442-.26-4.673-.703a7 7 0 0 1-.827-.358V10c0 .007.002.113.227.305.223.19.59.394 1.108.58 1.03.371 2.502.615 4.165.615s3.135-.244 4.165-.615c.519-.186.885-.39 1.108-.58.225-.192.227-.298.227-.305zM1 6v4c0 .615.348 1.1.755 1.447.41.349.959.63 1.572.85C4.558 12.74 6.21 13 8 13s3.441-.26 4.674-.703c.612-.22 1.161-.501 1.571-.85.407-.346.755-.832.755-1.447V6c0-.615-.348-1.1-.755-1.447-.41-.349-.959-.63-1.571-.85C11.442 3.26 9.789 3 8 3s-3.442.26-4.673.703c-.613.22-1.162.501-1.572.85C1.348 4.9 1 5.385 1 6" clip-rule="evenodd"/></svg>
